svgs/tinkoff.svg

<svg width="192" height="192" viewBox="0 0 192 192" fill="none" xmlns="http://www.w3.org/2000/svg"><path d="M79.5 87v-6a6 6 0 0 0-6 6h6Zm0 43.5h-6a5.999 5.999 0 0 0 2.672 4.992L79.5 130.5Zm16.5 11-3.328 4.992a5.999 5.999 0 0 0 6.656 0L96 141.5ZM112.5 87h6a6 6 0 0 0-6-6v6Zm0 43.5 3.328 4.992a6 6 0 0 0 2.672-4.992h-6ZM73.5 87v43.5h12V87h-12Zm2.672 48.492 16.5 11 6.656-9.984-16.5-11-6.656 9.984ZM106.5 87v43.5h12V87h-12Zm2.672 38.508-16.5 11 6.656 9.984 16.5-11-6.656-9.984ZM112.5 81h-33v12h33V81Zm-34.66 70.389a6 6 0 1 0-7.68 9.222l7.68-9.222Zm43.999 9.222a6 6 0 1 0-7.678-9.222l7.678 9.222ZM96 156c-8.87 0-15.474-2.374-18.16-4.611l-7.68 9.222C75.858 165.353 85.683 168 96 168v-12Zm0 12c10.318 0 20.143-2.647 25.839-7.389l-7.678-9.222C111.474 153.626 104.871 156 96 156v12ZM85 32.5l-5.883-1.177a6.002 6.002 0 0 0-.063 1.98L85 32.5ZM87.5 51l3.6 4.8a6 6 0 0 0 2.346-5.603L87.5 51Zm-6 4.5-3.6-4.8a6 6 0 0 0-1.177 8.43L81.5 55.5Zm25.5-23 5.946.803a5.985 5.985 0 0 0-.063-1.98L107 32.5ZM104.5 51l-5.946-.803A6 6 0 0 0 100.9 55.8l3.6-4.8Zm6 4.5 4.777 3.63a5.999 5.999 0 0 0-1.177-8.43l-3.6 4.8Zm-8.299 10.92-4.777-3.63 4.777 3.63ZM96 24c-1.946 0-4.948.134-7.644.58-1.308.218-2.88.56-4.296 1.159-.708.299-1.642.77-2.52 1.524-.893.764-2.03 2.089-2.424 4.06l11.767 2.354c-.294 1.471-1.121 2.343-1.534 2.697-.4.343-.687.447-.618.418.137-.057.633-.215 1.588-.373C92.149 36.116 94.446 36 96 36V24Zm-16.946 9.303 2.5 18.5 11.892-1.606-2.5-18.5-11.892 1.607ZM83.9 46.2l-6 4.5 7.2 9.6 6-4.5-7.2-9.6Zm-7.177 12.93 8.3 10.92 9.553-7.26-8.299-10.92-9.554 7.26ZM96 36c1.554 0 3.852.116 5.681.42.955.157 1.451.315 1.588.372.069.03-.218-.075-.618-.418-.413-.354-1.24-1.226-1.534-2.697l11.766-2.354c-.394-1.971-1.531-3.296-2.422-4.06-.879-.753-1.813-1.225-2.521-1.524-1.416-.599-2.988-.941-4.296-1.158C100.948 24.134 97.946 24 96 24v12Zm5.054-4.303-2.5 18.5 11.892 1.606 2.5-18.5-11.892-1.606ZM100.9 55.8l6 4.5 7.2-9.6-6-4.5-7.2 9.6Zm4.823-3.93-8.3 10.92 9.555 7.26 8.299-10.92-9.554-7.26ZM92.984 74h6.032V62h-6.032v12Zm4.44-11.21a2 2 0 0 1 1.592-.79v12a10 10 0 0 0 7.962-3.95l-9.554-7.26Zm-12.402 7.26A10 10 0 0 0 92.984 74V62a2 2 0 0 1 1.592.79l-9.553 7.26Z" fill="#000"/><path d="M167.5 74c-16.8-2-27-13.167-28.5-24.5-5.167 2-12.11 8.483-4 22 7.5 12.5 2.167 21.167-2.5 24.5 2.4 2.8 10.167 7 13 7.5C144 105 135 109 135 123s-3.667 15.833-4.5 16.5c16.4 2.8 25.167-13.5 26.5-23 9.2 1.6 12.5-4.167 13-6.5-10.8-2.8-10-14-9.5-19.5 7-.5 8.167-12.667 7-16.5Zm-143 0c16.8-2 27-13.167 28.5-24.5 5.167 2 12.11 8.483 4 22C49.5 84 54.833 92.667 59.5 96c-2.4 2.8-10.167 7-13 7.5C48 105 57 109 57 123s3.667 15.833 4.5 16.5c-16.4 2.8-25.167-13.5-26.5-23-9.2 1.6-12.5-4.167-13-6.5 10.8-2.8 10-14 9.5-19.5-7-.5-8.167-12.667-7-16.5Z" stroke="#000" stroke-width="12" stroke-linecap="round" stroke-linejoin="round"/></svg>

<?xml version="1.0" encoding="UTF-8" standalone="no"?><svg xmlns:android="http://schemas.android.com/apk/res/android" height="192" width="192" xmlns="http://www.w3.org/2000/svg">
  <path d="M79.5,87V81C76.186,81 73.5,83.686 73.5,87H79.5ZM79.5,130.5H73.5C73.5,132.506 74.503,134.38 76.172,135.492L79.5,130.5ZM96,141.5L92.672,146.492C94.687,147.836 97.313,147.836 99.328,146.492L96,141.5ZM112.5,87H118.5C118.5,83.686 115.814,81 112.5,81V87ZM112.5,130.5L115.828,135.492C117.497,134.38 118.5,132.506 118.5,130.5H112.5ZM73.5,87V130.5H85.5V87H73.5ZM76.172,135.492L92.672,146.492L99.328,136.508L82.828,125.508L76.172,135.492ZM106.5,87V130.5H118.5V87H106.5ZM109.172,125.508L92.672,136.508L99.328,146.492L115.828,135.492L109.172,125.508ZM112.5,81H79.5V93H112.5V81Z" fill="#000000"/>
  <path d="M77.839,151.389C75.293,149.269 71.509,149.614 69.389,152.161C67.269,154.707 67.614,158.491 70.161,160.611L77.839,151.389ZM121.839,160.611C124.386,158.491 124.731,154.707 122.611,152.161C120.491,149.614 116.707,149.269 114.161,151.389L121.839,160.611ZM96,156C87.129,156 80.526,153.626 77.839,151.389L70.161,160.611C75.857,165.353 85.682,168 96,168V156ZM96,168C106.318,168 116.143,165.353 121.839,160.611L114.161,151.389C111.474,153.626 104.871,156 96,156V168Z" fill="#000000"/>
  <path d="M85,32.5L79.117,31.323C78.986,31.975 78.965,32.645 79.054,33.304L85,32.5ZM87.5,51L91.1,55.8C92.84,54.495 93.737,52.351 93.446,50.196L87.5,51ZM81.5,55.5L77.9,50.7C76.622,51.659 75.779,53.088 75.558,54.67C75.337,56.253 75.756,57.858 76.723,59.131L81.5,55.5ZM107,32.5L112.946,33.304C113.035,32.645 113.014,31.975 112.883,31.323L107,32.5ZM104.5,51L98.554,50.196C98.263,52.351 99.16,54.495 100.9,55.8L104.5,51ZM110.5,55.5L115.277,59.131C116.244,57.858 116.663,56.253 116.442,54.67C116.221,53.088 115.378,51.659 114.1,50.7L110.5,55.5ZM102.201,66.42L97.424,62.79L102.201,66.42ZM96,24C94.054,24 91.052,24.134 88.356,24.581C87.048,24.798 85.476,25.14 84.06,25.739C83.352,26.038 82.418,26.51 81.539,27.263C80.647,28.027 79.511,29.352 79.117,31.323L90.883,33.677C90.589,35.148 89.762,36.02 89.349,36.374C88.949,36.717 88.662,36.821 88.731,36.792C88.868,36.735 89.364,36.577 90.319,36.419C92.148,36.116 94.446,36 96,36V24ZM79.054,33.304L81.554,51.804L93.446,50.196L90.946,31.697L79.054,33.304ZM83.9,46.2L77.9,50.7L85.1,60.3L91.1,55.8L83.9,46.2ZM76.723,59.131L85.022,70.051L94.576,62.79L86.277,51.869L76.723,59.131ZM96,36C97.554,36 99.852,36.116 101.681,36.419C102.636,36.577 103.132,36.735 103.269,36.792C103.338,36.821 103.051,36.717 102.651,36.374C102.238,36.02 101.411,35.148 101.117,33.677L112.883,31.323C112.489,29.352 111.352,28.027 110.461,27.263C109.582,26.51 108.648,26.038 107.94,25.739C106.524,25.14 104.952,24.798 103.644,24.581C100.948,24.134 97.946,24 96,24V36ZM101.054,31.697L98.554,50.196L110.446,51.804L112.946,33.304L101.054,31.697ZM100.9,55.8L106.9,60.3L114.1,50.7L108.1,46.2L100.9,55.8ZM105.723,51.869L97.424,62.79L106.978,70.051L115.277,59.131L105.723,51.869ZM92.984,74H99.016V62H92.984V74ZM97.424,62.79C97.802,62.292 98.391,62 99.016,62V74C102.141,74 105.087,72.539 106.978,70.051L97.424,62.79ZM85.022,70.051C86.913,72.539 89.859,74 92.984,74V62C93.609,62 94.198,62.292 94.576,62.79L85.022,70.051Z" fill="#000000"/>
  <path d="M167.5,74C150.7,72 140.5,60.833 139,49.5C133.833,51.5 126.89,57.983 135,71.5C142.5,84 137.167,92.667 132.5,96C134.9,98.8 142.667,103 145.5,103.5C144,105 135,109 135,123C135,137 131.333,138.833 130.5,139.5C146.9,142.3 155.667,126 157,116.5C166.2,118.1 169.5,112.333 170,110C159.2,107.2 160,96 160.5,90.5C167.5,90 168.667,77.833 167.5,74Z" fill="#000000" fill-opacity="0.0" stroke="#000000" stroke-linecap="round" stroke-linejoin="round" stroke-width="12"/>
  <path d="M24.5,74C41.3,72 51.5,60.833 53,49.5C58.167,51.5 65.11,57.983 57,71.5C49.5,84 54.833,92.667 59.5,96C57.1,98.8 49.333,103 46.5,103.5C48,105 57,109 57,123C57,137 60.667,138.833 61.5,139.5C45.1,142.3 36.333,126 35,116.5C25.8,118.1 22.5,112.333 22,110C32.8,107.2 32,96 31.5,90.5C24.5,90 23.333,77.833 24.5,74Z" fill="#000000" fill-opacity="0.0" stroke="#000000" stroke-linecap="round" stroke-linejoin="round" stroke-width="12"/>
</svg>
